brandFactory_export/1.Light/Wifi hogar home casa_1Light.svg

<?xml version="1.0" encoding="UTF-8"?>
<svg width="24px" height="24px" viewBox="0 0 24 24" version="1.1" xmlns="http://www.w3.org/2000/svg" xmlns:xlink="http://www.w3.org/1999/xlink">
    <title>1.Light/Wifi hogar home casa_1Light</title>
    <g id="Symbols" stroke="none" stroke-width="1" fill="none" fill-rule="evenodd">
        <g id="1.Light/Wifi-hogar-home-casa_1Light" fill="#5CB615" fill-rule="nonzero">
            <path d="M22.5781513,11.687395 C22.6319328,11.5663866 22.7226891,11.2537815 22.4201681,10.9579832 L12.5109244,1.22016807 C12.3428571,1.05546218 12.1008403,0.961344538 11.8487395,0.961344538 C11.5932773,0.961344538 11.3512605,1.05546218 11.1831933,1.22016807 L1.27058824,10.9579832 C0.968067227,11.2537815 1.05882353,11.5663866 1.11260504,11.687395 C1.21344538,11.9226891 1.48571429,12.1747899 1.93613445,12.1747899 L3.17983193,12.1747899 C3.46218487,12.1747899 3.6907563,12.3966387 3.6907563,12.6689076 L3.6907563,21.902521 C3.6907563,22.3092437 4.08403361,22.6386555 4.56470588,22.6386555 L18.9815126,22.6386555 C19.4655462,22.6386555 19.8588235,22.3092437 19.8588235,21.902521 L19.8588235,12.6689076 C19.8588235,12.3966387 20.087395,12.1747899 20.3697479,12.1747899 L21.7546218,12.1747899 C22.205042,12.1747899 22.4773109,11.9226891 22.5781513,11.687395 Z M23.1495798,10.2655462 C23.6504202,10.7563025 23.7915966,11.4487395 23.5226891,12.0705882 C23.2336134,12.7327731 22.5411765,13.1596639 21.7546218,13.1596639 L20.8840336,13.1596639 L20.8840336,21.8991597 C20.8840336,22.8504202 20.0336134,23.6235294 18.9848739,23.6235294 L4.56470588,23.6235294 C3.51932773,23.6235294 2.66554622,22.8504202 2.66554622,21.8991597 L2.66554622,13.1596639 L1.93277311,13.1596639 C1.14621849,13.1596639 0.457142857,12.7327731 0.164705882,12.0705882 C-0.104201681,11.4487395 0.0369747899,10.7596639 0.537815126,10.2689076 L10.4470588,0.527731092 C11.1663866,-0.174789916 12.5210084,-0.174789916 13.2369748,0.527731092 L23.1495798,10.2655462 Z M11.8016807,19.0722689 C12.4638655,19.0588235 12.4638655,18.6386555 12.4638655,18.4773109 C12.4638655,18.3327731 12.4638655,17.892437 11.8789916,17.8789916 L11.7882353,17.8789916 C11.2235294,17.8857143 11.2235294,18.312605 11.2235294,18.4705882 C11.2268908,18.6352941 11.2268908,19.0655462 11.8016807,19.0722689 Z M11.9092437,16.8941176 C12.692437,16.9109244 13.4890756,17.4084034 13.4890756,18.4773109 C13.4890756,19.5495798 12.6957983,20.0436975 11.9092437,20.0571429 L11.794958,20.0571429 C11.0016807,20.0470588 10.205042,19.5529412 10.205042,18.4705882 C10.205042,17.3882353 10.9983193,16.897479 11.7815126,16.8907563 L11.7882353,16.8907563 L11.9092437,16.8941176 L11.9092437,16.8941176 Z M11.7815126,8.23529412 C11.9294118,8.22184874 16.0067227,8.02352941 18.7529412,10.9882353 C18.9411765,11.189916 18.9243697,11.502521 18.712605,11.6840336 C18.6151261,11.7680672 18.4941176,11.8084034 18.3697479,11.8084034 C18.2285714,11.8084034 18.0907563,11.7512605 17.9865546,11.6436975 C15.5663866,9.03529412 11.8588235,9.22352941 11.8151261,9.22016807 C7.83193277,9.26386555 5.71764706,11.4655462 5.69747899,11.4857143 C5.50588235,11.687395 5.18319328,11.7042017 4.97478992,11.5193277 C4.76638655,11.3378151 4.74957983,11.0252101 4.93781513,10.8235294 C5.03865546,10.7193277 7.38151261,8.2789916 11.7815126,8.23529412 L11.7815126,8.23529412 Z M11.7848739,11.1193277 C11.9092437,11.112605 15.1428571,11.0084034 17.2033613,13.2268908 C17.3915966,13.4285714 17.3747899,13.7411765 17.1630252,13.9226891 C16.9546218,14.1008403 16.6285714,14.087395 16.4403361,13.8823529 C14.7058824,12.0134454 11.8420168,12.0907563 11.8117647,12.1042017 C8.94453782,12.1344538 7.26386555,13.8991597 7.24705882,13.9159664 C7.14621849,14.0235294 7.00504202,14.0806723 6.86722689,14.0806723 C6.74621849,14.0806723 6.62184874,14.0403361 6.52436975,13.9529412 C6.31260504,13.7714286 6.29579832,13.4588235 6.48403361,13.2571429 C6.56806723,13.1731092 8.4907563,11.1529412 11.7848739,11.1193277 L11.7848739,11.1193277 Z M11.805042,14.0672269 C11.8823529,14.0638655 14.010084,13.989916 15.3747899,15.4621849 C15.5630252,15.6638655 15.5462185,15.9764706 15.3344538,16.1579832 C15.1260504,16.3361345 14.8,16.3226891 14.6117647,16.1176471 C13.5764706,15.005042 11.8386555,15.0521008 11.8319328,15.0521008 C10.1142857,15.0722689 9.08571429,16.1310924 9.07563025,16.1411765 C8.97478992,16.2487395 8.83697479,16.302521 8.69579832,16.302521 C8.57142857,16.302521 8.45042017,16.2588235 8.35294118,16.1747899 C8.14453782,15.989916 8.12773109,15.6840336 8.31596639,15.4789916 C8.3697479,15.4252101 9.64033613,14.0907563 11.805042,14.0672269 Z" id="Wifi-hogar-home-casa_1Light"></path>
        </g>
    </g>
</svg>

<svg width="24" height="24" viewBox="0 0 24 24" xmlns="http://www.w3.org/2000/svg"><path d="M22.578 11.687a.625.625 0 00-.158-.729L12.51 1.22a.95.95 0 00-.661-.259.952.952 0 00-.666.26l-9.912 9.737a.625.625 0 00-.158.73c.1.235.373.487.823.487H3.18c.282 0 .51.222.51.494v9.234c0 .406.394.736.875.736h14.417c.484 0 .877-.33.877-.736v-9.234c0-.272.228-.494.51-.494h1.386c.45 0 .722-.252.823-.488zm.572-1.421c.5.49.642 1.183.373 1.805-.29.662-.982 1.089-1.768 1.089h-.871v8.74c0 .95-.85 1.724-1.9 1.724H4.565c-1.045 0-1.898-.774-1.898-1.725v-8.74h-.733c-.787 0-1.476-.426-1.768-1.088-.27-.622-.128-1.311.373-1.802l9.91-9.741c.718-.703 2.073-.703 2.789 0l9.913 9.738zm-11.348 8.806c.662-.013.662-.433.662-.595 0-.144 0-.585-.585-.598h-.09c-.565.007-.565.434-.565.592.003.164.003.595.578.601zm.107-2.178c.783.017 1.58.514 1.58 1.583 0 1.073-.793 1.567-1.58 1.58h-.114c-.793-.01-1.59-.504-1.59-1.586 0-1.083.793-1.574 1.577-1.58h.006l.121.003zm-.127-8.659c.147-.013 4.225-.211 6.97 2.753a.48.48 0 01-.04.696.532.532 0 01-.726-.04c-2.42-2.609-6.127-2.42-6.17-2.424-3.984.044-6.098 2.246-6.119 2.266a.523.523 0 01-.722.033.482.482 0 01-.037-.695c.1-.105 2.444-2.545 6.844-2.589zm.003 2.884c.124-.006 3.358-.11 5.418 2.108a.48.48 0 01-.04.696.527.527 0 01-.723-.04c-1.734-1.87-4.598-1.792-4.628-1.779-2.867.03-4.548 1.795-4.565 1.812a.525.525 0 01-.723.037.48.48 0 01-.04-.696c.084-.084 2.007-2.104 5.3-2.138zm.02 2.948c.077-.003 2.205-.077 3.57 1.395a.48.48 0 01-.04.696.527.527 0 01-.723-.04c-1.036-1.113-2.773-1.066-2.78-1.066-1.718.02-2.746 1.08-2.756 1.09a.523.523 0 01-.723.034.482.482 0 01-.037-.697c.054-.054 1.324-1.388 3.489-1.412z" fill="#5CB615" fill-rule="nonzero"/></svg>
